!!!COM: Clementi, Muzio
!!!CDT: 1752/01/23/-1832/03/10/
!!!ODT: ~1800///
!!!OTL: Sonata No. 1 in C Major, Op. 36, Mvmt. 3
!!!OPS: Op. 36
!!!ONM: No. 1
!!!OMV: 3. Vivace
**kern	**kern	**dynam
*staff2	*staff1	*staff1/2
*clefF4	*clefG2	*clefG2
*k[]	*k[]	*k[]
*M3/8	*M3/8	*M3/8
*MM154	*MM154	*MM154
=1-	=1-	=1-
8C\L	16ee\LL	.
.	16dd\J	.
8E\	8cc\	.
8G\J	8cc\J	.
=2	=2	=2
8C\L	(4gg\	.
8E\	.	.
8G\J	16ff\LL	.
.	16ee\JJ)	.
=3	=3	=3
8C\L	8dd\L	.
8D\	8ff\	.
8F\J	8b\J	.
=4	=4	=4
8C\L	8cc/L	.
8E\	8g/	.
8G\J	8g/J	.
=5	=5	=5
8C\L	16ee\LL	.
.	16dd\J	.
8E\	8cc\	.
8G\J	8cc\J	.
=6	=6	=6
8C\L	4gg\	.
8E\	.	.
8G\J	16ff\LL	.
.	16ee\JJ	.
=7	=7	=7
8GG/L	16dd\LL	.
.	16ee\	.
8D/	16ff\	.
.	16ee\	.
8G/J	16ff\	.
.	16dd\JJ	.
=8	=8	=8
8C\L	8cc\	.
8E\	8r	.
8G\J	8r	.
=9	=9	=9
8C\L	16ee\LL	f
.	16dd\J	.
8E\	8cc\	.
8G\J	8cc\J	.
=10	=10	=10
8C\L	4gg\	.
8E\	.	.
8G\J	16ff\LL	.
.	16ee\JJ	.
=11	=11	=11
8C\L	8dd\L	.
8D\	8ff\	.
8F\J	8b\J	.
=12	=12	=12
8C\L	8cc/L	.
8E\	8g/	.
8G\J	8g/J	.
=13	=13	=13
8C\L	16ee\LL	.
.	16dd\J	.
8E\	8cc\	.
8G\J	8cc\J	.
=14	=14	=14
8C\L	4gg\	.
8E\	.	.
8G\J	16ff\LL	.
.	16ee\JJ	.
=15	=15	=15
8GG/L	16dd\LL	.
.	16ee\	.
8D/	16ff\	.
.	16ee\	.
8G/J	16ff\	.
.	16dd\JJ	.
=16	=16	=16
8C\L	8cc\	.
8E\	8r	.
8G\J	8r	.
=17	=17	=17
4c\	16g/LL	p
.	16f/J	.
.	8e/	.
8r	8e/J	.
=18	=18	=18
4c\	16a/LL	.
.	16g/J	.
.	8f/	.
8r	8f/J	.
=19	=19	=19
8c\L	16d/LL	f
.	16f/	.
8c\	16b/	.
.	16f/	.
8c\J	16b/	.
.	16f/JJ	.
=20	=20	=20
8c\L	8e/L	.
8c\	8g/	.
8c\J	8cc/J	.
=21	=21	=21
4c\	16g/LL	p
.	16f/J	.
.	8e/	.
8r	8e/J	.
=22	=22	=22
4A\ 4c\	16ee\LL	.
.	16dd\J	.
.	8cc\	.
8r	8cc\J	.
=23	=23	=23
8D\ 8A\L	16f#/LL	f
.	16g/	.
8D\ 8A\	16a/	.
.	16b/	.
8D\ 8A\J	16cc/	.
.	16a/JJ	.
=24	=24	=24
8G\ 8B\L	8g/	.
8G\ 8B\	8r	.
8G\ 8B\J	16bb\LL	.
.	16ccc\JJ	.
=25	=25	=25
8G\ 8B\L	16ddd\LL	.
.	16ccc\	.
8G\ 8B\	16bb\	.
.	16aa\	.
8G\ 8B\J	16gg\	.
.	16ff#\JJ	.
=26	=26	=26
8G\ 8c\L	16ee\LL	.
.	16dd\	.
8G\ 8c\	16cc\	.
.	16b\	.
8G\ 8c\J	16a\	.
.	16g\JJ	.
=27	=27	=27
8G\ 8c\L	16f#/LL	.
.	16g/	.
8G\ 8c\	16a/	.
.	16b/	.
8G\ 8c\J	16cc/	.
.	16a/JJ	.
=28	=28	=28
8G\ 8B\L	8g/	.
8G\ 8B\	8r	.
8G\ 8B\J	16bb\LL	.
.	16ccc\JJ	.
=29	=29	=29
8G\ 8B\L	16ddd\LL	.
.	16ccc\	.
8G\ 8B\	16bb\	.
.	16aa\	.
8G\ 8B\J	16gg\	.
.	16ff#\JJ	.
=30	=30	=30
8G\ 8B\	8ffn\L	.
8r	8ff\	.
8r	16ddd\L	.
.	16bb\JJ	.
=31	=31	=31
8G\ 8B\	8ff\L	.
8r	8ff\	>
8r	16ddd\L	.
.	16bb\JJ	.
=32	=32	=32
8G\L	8ff\	.
8B\	8r	.
8d\J	8r	.
=33	=33	=33
8G\L	8dd\	p
8B\	8r	.
8d\J	8r	.
=34	=34	=34
4G\	16b\LL	.
.	16g\	.
.	16a\	.
.	16b\	.
8r	16cc\	.
.	16dd\JJ	.
=35	=35	=35
8C\L	16ee\LL	pp
.	16dd\J	.
8E\	8cc\	.
8G\J	8cc\J	.
=36	=36	=36
8C\L	4gg\	.
8E\	.	.
8G\J	16ff\LL	.
.	16ee\JJ	.
=37	=37	=37
8C\L	8dd\L	.
8D\	8ff\	.
8F\J	8b\J	.
=38	=38	=38
8C\L	8cc/L	.
8E\	8g/	.
8G\J	8g/J	.
=39	=39	=39
8C\L	16ee\LL	.
.	16dd\J	.
8E\	8cc\	.
8G\J	8cc\J	.
=40	=40	=40
8C\L	4gg\	.
8E\	.	.
8G\J	16ff\LL	.
.	16ee\JJ	.
=41	=41	=41
8GG/L	16dd\LL	.
.	16ee\	.
8D/	16ff\	.
.	16ee\	.
8G/J	16ff\	.
.	16dd\JJ	.
=42	=42	=42
8C\L	8cc\	.
8E\	8r	.
8G\J	8r	.
=43	=43	=43
8C\L	16ee\LL	f
.	16dd\J	.
8E\	8cc\	.
8G\J	8cc\J	.
=44	=44	=44
8C\L	4gg\	.
8E\	.	.
8G\J	16ff\LL	.
.	16ee\JJ	.
=45	=45	=45
8C\L	8dd\L	.
8D\	8ff\	.
8F\J	8b\J	.
=46	=46	=46
8C\L	8cc/L	.
8E\	8g/	.
8G\J	8g/J	.
=47	=47	=47
8C\L	16ee\LL	.
.	16dd\J	.
8E\	8cc\	.
8G\J	8cc\J	.
=48	=48	=48
8C\L	4gg\	.
8E\	.	.
8G\J	16ff\LL	.
.	16ee\JJ	.
=49	=49	=49
8GG/L	16dd\LL	.
.	16ee\	.
8D/	16ff\	.
.	16ee\	.
8G/J	16ff\	.
.	16dd\JJ	.
=50	=50	=50
8C\L	8cc\	.
8E\	8r	.
8G\J	8r	.
=51	=51	=51
4c\	16g/LL	p
.	16f/J	.
.	8e/	.
8r	8e/J	.
=52	=52	=52
4c\	16a/LL	.
.	16g/J	.
.	8f/	.
8r	8f/J	.
=53	=53	=53
8c\L	16d/LL	f
.	16f/	.
8c\	16b/	.
.	16f/	.
8c\J	16b/	.
.	16f/JJ	.
=54	=54	=54
8c\L	8e/	.
8G\	8r	.
8E\J	16ee\LL	.
.	16ff\JJ	.
=55	=55	=55
8C\L	16gg\LL	.
.	16ff\	.
8D\	16ee\	.
.	16dd\	.
8E\J	16cc\	.
.	16b\JJ	.
=56	=56	=56
4F\	16a/LL	.
.	16g/	.
.	16f/	.
.	16e/	.
8r	16d/	.
.	16c/JJ	.
=57	=57	=57
4GG/	16B/LL	.
.	16c/	.
.	16d/	.
.	16e/	.
8r	16f/	.
.	16d/JJ	.
=58	=58	=58
8C\L	4c/	.
8E\	.	.
8G\J	8r	.
=59	=59	=59
4c\	16g/LL	p
.	16f/J	.
.	8e/	.
8r	8e/J	.
=60	=60	=60
4c\	16a/LL	.
.	16g/J	.
.	8f/	.
8r	8f/J	.
=61	=61	=61
8c\L	16d/LL	f
.	16f/	.
8c\	16b/	.
.	16f/	.
8c\J	16b/	.
.	16f/JJ	.
=62	=62	=62
8c\L	8e/	.
8G\	8r	.
8E\J	16ee\LL	.
.	16ff\JJ	.
=63	=63	=63
8C\L	16gg\LL	.
.	16ff\	.
8D\	16ee\	.
.	16dd\	.
8E\J	16cc\	.
.	16b\JJ	.
=64	=64	=64
8F\L	16a/LL	.
.	16g/	.
8F\	16f/	.
.	16e/	.
8F\J	16d/	.
.	16c/JJ	.
=65	=65	=65
8GG/L	16B/LL	.
.	16c/	.
8GG/	16d/	.
.	16e/	.
8GG/J	16f/	.
.	16d/JJ	.
=66	=66	=66
8C\L	8c/	ff
8E\	8r	.
8G\J	8r	.
=67	=67	=67
8C\L	8e/ 8g/	.
8E\	8r	.
8G\J	8r	.
=68	=68	=68
8C\L	8e/ 8g/ 8cc/	.
8E\	8r	.
8G\J	8r	.
=69	=69	=69
8C\L	8ee\ 8gg\	.
8E\	8r	.
8G\J	8r	.
=70	=70	=70
4C/	4ee\ 4gg\ 4ccc\	.
8r	8r	.
==	==	==
*-	*-	*-
!!!ENC: Craig Stuart Sapp
!!!END: 2004/11/26/
